X: 913
T: The cuckoo's nest
C: anon.
O: Ireland
B: Francis O'Neill: "The Dance Music of Ireland" (1907) no. 913
R: Hornpipe
Z: Transcribed by Frank Nordberg - http://www.musicaviva.com
F: http://www.musicaviva.com/abc/tunes/ireland/oneill-1001/oneill-1001-091
3.abc
M: 2/4
L: 1/16
K: G
(dc)|BABA GBdg|fdcB cedc|BABG FGAB|c2A2 A2(dc)|BABA GBdg|fdcB cedc|BABG F
GAc|B2G2G2:|
|:(Bc)|dBGB dBGB|dcBA G2(AB)|cAFA cAFA|cBAG F2(BA)|GABc d2g2|fdcB cedc|BA
BG FGAc|B2G2G2:|
|:(Bc)|dggf gabg|afd^c d2(de)|=fede ^fgaf|gfdB cedc|BABA GBdg|fdcB cedc
|BABG FGAc|B2G2G2:|
W:
W:
W: From Musica Viva - http://www.musicaviva.com
W: the Internet center for free sheet music downloads.


